X:1
T:Title
%%score 1 2 3
L:1/8
M:2/2
K:C
V:1 treble nm="Part_1"
V:2 treble-8 nm="Part_2"
V:3 treble-8 nm="Part_3"
V:1
 F8 | A8 | c4 c4 | c8 | c4 c4 | d4 c4- | c4 B4 | c8 | z8 | c8 | c4 A4 | _B8 | A8 | z4 _B4 | %14
 c4 d4- | d2 c_B A4- | A4 G4 | F4 A4- | A4 G4- | G4 F4 | G8 | z8 | F8 | A4 B4 | c8 | d8 | d8 | %27
 d4 d4 | d4 c4 | d4 e4- | e4 c4- | c4 B4 | c8 | z8 | c4 d4- | d4 B4- | B4 c4- | c4 A4- | A4 c4- | %39
 c2 B2 G4 | A4 B4- | B4 A4 | G8 | E8 | F4 F4- | F4 A4- | A4 G4 | F6 E2 | G8 |] %49
V:2
 c8 | A8 | A4 A4 | F8 | F8 | z4 A4 | G8 | A8 | F8 | F8 | f4 f4- | f4 e4 | f8 | e4 f4 | g4 a4 | f8 | %16
 e8 | z4 f4 | e4 d4- | d4 c4 | d8- | d8 | z8 | d4 G4 | G8 | B4 G4- | G4 g4 | g4 G4 | G4 A4 | %29
 d4 c4- | c4 A4 | G8 | A8 | F8 | F8 | G4 G4- | G4 A4- | A4 F4- | F4 f4- | f4 e4- | e4 g4- | %41
 g4 e4- | e4 d4 | g4 c4- | c4 B4- | B2 A2 F4- | F4 G4 | D8 | d8 |] %49
V:3
 F8 | c8 | e4 e4 | f8 | c8 | B4 c4 | d8 | c8- | c8 | A8 | F8 | G8 | F8 | c4 d4 | e4 f4 | d8 | c8 | %17
 d8 | c4 B4 | A8 | G8- | G8 | d8 | f4 g4 | e8 | d8 | B4 G4- | G4 g4 | g4 e4 | f4 g4 | c8 | d8 | %32
 c8- | c8 | f8 | d8 | e8 | c8 | A8 | F4 c4- | c4 G4- | G4 c4- | c4 B4 | G4 A4- | A4 d4- | d4 c4- | %46
 c4 B4 | A8 | G8 |] %49

